X: 1
T: Madam McKerrell of Hillhouse
C: Bill Clement
R: reel
Z: 2010 John Chambers <jc:trillian.mit.edu>
S: image from Atsuko Clement
M: C|
L: 1/16
K: Hp
|: {g}ed |\
{g}c<{d}A{d}c<e {g}d<f{g}e>d | {g}c<{d}A{d}c<e {ag}a2ed |\
{g}c<{d}A{d}c<e {g}d<f{g}e>c | {g}B4 {GdG}B2{g}ed |
y7 \
{g}c<{d}A{d}c<e {g}d<f{g}e>d | {g}c<{d}A{d}c<e {ag}a2ed |\
{g}c<ae>c {g}B<f{g}e>G | {g}A4 {GAG}A2 :|
|: e2 |\
a>e{g}c<e a>e{g}c<e | {g}d>{e}d{d}d>f {g}e3d |\
{g}c<{d}A{d}c<e {g}d<f{g}e>c | {g}B4 {GdG}B2{g}ed |
y7 \
a>e{g}c<e a>e{g}c<e | {g}d>{e}d{d}d>f {g}e3d |\
{g}c<ae>c {g}B<f{g}e>G | {g}A4 {GAG}A2 :|
